assets/features/channel/europe-and-america/MyBank.svg

<svg width="80" height="80" viewBox="0 0 80 80" fill="none" xmlns="http://www.w3.org/2000/svg">
<rect x="0.5" y="0.5" width="79" height="79" rx="7.5" fill="white"/>
<rect x="0.5" y="0.5" width="79" height="79" rx="7.5" stroke="#EEEEEE"/>
<path d="M68 49.0151C67.5577 49.6628 67.1469 50.2631 66.7362 50.8476C66.6572 50.974 66.515 50.9266 66.4045 50.9266C63.8611 50.9266 61.3177 50.9266 58.7586 50.9266C52.4081 50.9266 46.0575 50.9266 39.7228 50.9266C39.4859 50.9266 39.3279 50.9898 39.1699 51.1636C36.5476 53.8491 33.3881 55.4762 29.6599 55.887C24.8418 56.4083 20.5923 55.0339 17.0221 51.7323C14.3207 49.2363 12.7252 46.1242 12.1723 42.4751C11.2087 36.0929 14.3523 29.6792 19.9604 26.4882C22.6933 24.9401 25.6158 24.2292 28.7437 24.4345C33.783 24.7821 37.7955 27.0569 40.7654 31.1326C40.8128 31.1958 40.9234 31.2748 40.876 31.3696C40.8286 31.4485 40.7022 31.4011 40.6233 31.4011C39.9756 31.4011 39.3121 31.4011 38.6644 31.4011C38.3485 31.4011 38.1431 31.3064 37.9377 31.0852C36.0894 29.0316 33.7988 27.6572 31.1133 26.9937C23.499 25.0822 15.7741 30.1058 14.4313 37.8307C13.2149 44.892 17.5276 51.6849 24.4942 53.3752C29.7073 54.6548 34.2254 53.2014 37.9219 49.2995C38.1273 49.0941 38.3169 48.9993 38.6012 48.9993C48.2534 48.9993 57.9213 48.9993 67.5735 48.9993H68V49.0151Z" fill="#1DC1F0"/>
<path d="M25.2046 41.4509C25.8838 39.6026 26.5473 37.7543 27.2108 35.9219C27.4004 35.4164 27.6847 35.0214 28.2534 34.9108C28.9011 34.7845 29.4382 35.1636 29.5014 35.8271C29.5014 35.9061 29.5014 35.9693 29.5014 36.0482C29.5014 38.876 29.5014 41.7195 29.5014 44.5472C29.5014 45.3054 28.9959 45.7004 28.2692 45.5424C27.8269 45.4476 27.5584 45.1001 27.5584 44.5946C27.5584 43.2992 27.5584 41.988 27.5584 40.6926C27.5584 40.5821 27.5584 40.4873 27.511 40.3609C27.4636 40.5189 27.4004 40.6926 27.353 40.8506C26.9739 42.0986 26.5947 43.3624 26.2156 44.6104C26.1682 44.7683 26.1208 44.9105 26.026 45.0369C25.5995 45.7162 24.7622 45.7162 24.3673 45.0053C24.1462 44.6262 24.0514 44.1996 23.8934 43.7889C23.4669 42.6357 23.0561 41.4825 22.6296 40.3135C22.5506 40.3925 22.5822 40.4873 22.5822 40.5505C22.5822 41.8932 22.5822 43.2202 22.5822 44.563C22.5822 45.337 22.0609 45.7004 21.2711 45.5108C20.8603 45.416 20.6392 45.0843 20.6392 44.5946C20.6392 42.6831 20.6392 40.7716 20.6392 38.8602C20.6392 37.9597 20.6392 37.0593 20.6392 36.143C20.6392 36.064 20.6392 35.9693 20.6392 35.8903C20.6708 35.4795 20.7655 35.1162 21.1921 34.9582C21.6502 34.7845 22.0767 34.8319 22.4558 35.1636C22.6928 35.369 22.835 35.6217 22.9614 35.9219C23.6564 37.6912 24.3673 39.4447 25.0624 41.2139C25.094 41.2929 25.1098 41.3719 25.2046 41.4351V41.4509Z" fill="#1DC1F0"/>
<path d="M63.7874 39.4904C63.9138 39.4904 63.9611 39.3799 64.0243 39.3325C64.593 38.8112 65.1617 38.2741 65.7304 37.7527C66.0622 37.4526 66.4413 37.263 66.8836 37.4526C67.5471 37.7369 67.6735 38.4636 67.1522 39.0323C66.9468 39.2535 66.7099 39.4588 66.4887 39.6642C66.2201 39.917 65.9674 40.1697 65.6988 40.4067C65.5567 40.5331 65.5409 40.6278 65.6514 40.7858C66.3149 41.7652 66.9626 42.7447 67.6103 43.7241C67.7525 43.9295 67.8631 44.1506 67.9421 44.3876C68.0526 44.8141 67.9736 45.1301 67.6735 45.3512C67.3102 45.6198 66.8994 45.6356 66.5361 45.3986C66.3149 45.2564 66.1728 45.0669 66.0306 44.8457C65.4619 43.9611 64.909 43.0764 64.3245 42.1918C64.2613 42.097 64.2139 41.8916 64.1191 41.9548C63.9611 42.0338 63.7874 42.1602 63.7716 42.3813C63.7716 42.4287 63.7716 42.4919 63.7716 42.5551C63.7716 43.2344 63.7716 43.9137 63.7716 44.6088C63.7716 45.1301 63.3766 45.525 62.8869 45.5566C62.3498 45.5882 61.9391 45.2406 61.8601 44.7193C61.8601 44.6561 61.8601 44.593 61.8601 44.5298C61.8601 41.6547 61.8601 38.7954 61.8601 35.9203C61.8601 35.5253 62.0023 35.2094 62.334 35.004C62.9817 34.6091 63.7874 35.0672 63.7874 35.8413C63.7874 36.9629 63.7874 38.0845 63.7874 39.2219C63.7874 39.3167 63.7874 39.3957 63.7874 39.4904Z" fill="#1A4C68"/>
<path d="M54.4243 41.2831C54.4243 40.2089 54.4243 39.1505 54.4243 38.0763C54.4243 37.3654 54.9772 36.8915 55.6407 37.0495C55.8935 37.1127 56.1146 37.239 56.2252 37.476C56.32 37.6814 56.4148 37.6498 56.5885 37.5708C57.2204 37.2548 57.8997 37.1443 58.6106 37.2548C59.7322 37.4286 60.4905 38.2185 60.7116 39.4191C60.7432 39.6244 60.7748 39.814 60.7748 40.0194C60.7748 41.5517 60.7748 43.0998 60.7748 44.6322C60.7748 45.1693 60.3641 45.58 59.827 45.5958C59.2899 45.5958 58.8791 45.2167 58.8318 44.6796C58.8318 44.6164 58.8318 44.5532 58.8318 44.49C58.8318 43.1472 58.8318 41.8045 58.8318 40.4459C58.8318 40.3195 58.8317 40.1931 58.816 40.0668C58.7212 39.3717 58.2473 39.0873 57.5838 39.3243C57.1572 39.4665 56.8255 39.7666 56.4938 40.0668C56.3832 40.1615 56.4148 40.2879 56.4148 40.3985C56.4148 41.7887 56.4148 43.1788 56.4148 44.569C56.4148 45.2167 55.9251 45.6432 55.2932 45.58C54.7877 45.5168 54.4401 45.1061 54.4401 44.5216C54.4401 43.4474 54.4401 42.3574 54.4401 41.2831H54.4243Z" fill="#1A4C68"/>
<path d="M33.6944 42.217C33.805 41.9168 33.884 41.6799 33.963 41.4429C34.2789 40.5109 34.6107 39.5788 34.9266 38.6468C34.9898 38.4572 35.0688 38.2677 35.1952 38.0939C35.4795 37.7148 35.8745 37.5726 36.3168 37.7306C36.7275 37.8727 36.9171 38.1729 36.9171 38.6468C36.9171 38.8364 36.8697 39.0259 36.8065 39.2155C36.0166 41.5377 35.211 43.8441 34.3105 46.1347C34.2473 46.3085 34.1525 46.4822 34.0736 46.656C33.5681 47.6828 32.9678 48.1094 31.4828 48.062C31.1827 48.062 30.8825 47.9988 30.5982 47.8566C30.1874 47.6512 29.9663 47.2879 30.0295 46.8772C30.0927 46.4664 30.3928 46.1979 30.8825 46.1505C31.1353 46.1189 31.4038 46.1347 31.6566 46.1031C32.2411 46.0399 32.4938 45.724 32.6676 45.1237C32.6992 44.9973 32.6202 44.8867 32.5886 44.7761C31.9093 42.991 31.2301 41.2059 30.5508 39.4367C30.4244 39.1049 30.3296 38.7732 30.4086 38.4098C30.4876 38.0465 30.7087 37.8253 31.0563 37.7306C31.4038 37.6358 31.7198 37.6674 31.9725 37.9359C32.1621 38.1097 32.2569 38.3308 32.3517 38.5678C32.7624 39.6736 33.1889 40.7952 33.5996 41.901C33.6312 41.98 33.6628 42.059 33.726 42.2012L33.6944 42.217Z" fill="#1DC1F0"/>
<path d="M46.1418 41.3674C46.0312 40.9093 45.8417 40.4986 45.4941 40.1669C45.3835 40.0721 45.2098 39.9931 45.1782 39.8667C45.1466 39.7245 45.3362 39.614 45.4151 39.4876C45.9838 38.5239 45.8733 36.8494 45.1624 35.9806C44.9412 35.712 44.6569 35.4909 44.3409 35.3329C43.8828 35.1117 43.3931 35.0169 42.9034 35.0012C41.8134 34.9696 40.7076 34.9854 39.6175 35.0012C38.7171 35.0012 38.2274 35.5067 38.2274 36.4229C38.2274 37.892 38.2274 39.3612 38.2274 40.8303C38.2274 42.3311 38.2274 43.8318 38.2274 45.3484C38.2274 45.4905 38.1958 45.6169 38.417 45.6169C40.0441 45.6169 41.6712 45.6169 43.2825 45.6011C44.7201 45.5695 45.6995 44.8586 46.0786 43.658C46.3156 42.9156 46.3314 42.1573 46.1576 41.3832L46.1418 41.3674ZM40.202 37.1812C40.202 37.0232 40.2494 36.9758 40.4074 36.9758C41.2131 36.9758 42.0187 36.9758 42.8086 36.9758C43.4405 36.9758 43.8196 37.4181 43.8196 38.05C43.8196 38.6977 43.4563 39.0452 42.7928 39.061C42.4137 39.061 42.0345 39.061 41.6554 39.061C41.2447 39.061 40.8497 39.061 40.439 39.061C40.2652 39.061 40.1863 39.0295 40.202 38.8399C40.202 38.287 40.202 37.7341 40.202 37.1812ZM44.0882 43.1209C43.8512 43.5317 43.4563 43.658 43.014 43.6738C42.5874 43.6738 42.1609 43.6738 41.7344 43.6738C41.2921 43.6738 40.8497 43.6738 40.4074 43.6738C40.2494 43.6738 40.202 43.6265 40.202 43.4685C40.202 42.726 40.202 41.9993 40.202 41.2569C40.202 41.0831 40.2652 41.0515 40.4074 41.0673C41.2605 41.0673 42.0977 41.0673 42.9508 41.0673C44.0408 41.0831 44.6253 42.1731 44.0724 43.1209H44.0882Z" fill="#1A4C68"/>
<path d="M53.4086 42.3025C53.4086 42.3025 53.4086 42.3025 53.3928 42.3025C53.3928 41.5126 53.4244 40.7385 53.3928 39.9487C53.3296 38.6533 52.6187 37.6581 51.4813 37.3421C49.9964 36.9314 48.6536 37.2789 47.4846 38.29C47.3424 38.4163 47.2161 38.5743 47.1371 38.7481C46.9633 39.1588 47.0581 39.6485 47.374 39.9171C47.6584 40.1698 48.1007 40.1856 48.4798 39.9645C48.622 39.8855 48.7484 39.7749 48.8906 39.6801C49.3171 39.3484 49.791 39.143 50.3281 39.064C50.8178 38.985 51.1812 39.1904 51.3549 39.6327C51.4655 39.9171 51.4497 39.9329 51.1496 39.9487C50.2175 39.9645 49.3171 40.0909 48.4798 40.5648C47.4214 41.1651 46.9001 42.2235 47.0423 43.4241C47.1845 44.4983 47.8322 45.2408 48.8748 45.4935C49.7436 45.6989 50.5651 45.5251 51.3234 45.1144C51.4497 45.0512 51.5129 45.0038 51.5919 45.1776C51.6709 45.3829 51.8605 45.4935 52.0658 45.5567C52.8241 45.7779 53.4086 45.3513 53.4086 44.5615C53.4086 43.819 53.4086 43.0607 53.4086 42.3183V42.3025ZM51.5129 42.1445C51.4497 42.4288 51.3234 42.6658 51.1338 42.8712C50.7389 43.2503 50.2807 43.4873 49.7278 43.4715C49.5699 43.4715 49.4119 43.4715 49.2697 43.4083C48.9854 43.3135 48.8116 43.1397 48.78 42.8396C48.7484 42.5394 48.8906 42.3499 49.1275 42.2077C49.5383 41.9707 49.9964 41.9075 50.4545 41.8601C50.7389 41.8286 51.0232 41.8601 51.3076 41.8443C51.5445 41.8443 51.5761 41.9391 51.5287 42.1287L51.5129 42.1445Z" fill="#1A4C68"/>
</svg>

<svg xmlns="http://www.w3.org/2000/svg" width="80" height="80" fill="none" viewBox="0 0 80 80"><rect width="79" height="79" x=".5" y=".5" fill="#fff" rx="7.5"/><rect width="79" height="79" x=".5" y=".5" stroke="#eee" rx="7.5"/><path fill="#1dc1f0" d="M68 49.015a161 161 0 0 1-1.264 1.833c-.079.126-.221.079-.332.079h-26.68a.67.67 0 0 0-.553.237c-2.622 2.685-5.782 4.312-9.51 4.723-4.818.521-9.068-.853-12.638-4.155-2.701-2.496-4.297-5.608-4.85-9.257-.963-6.382 2.18-12.796 7.788-15.987 2.733-1.548 5.656-2.259 8.784-2.053 5.039.347 9.051 2.622 12.021 6.698.048.063.158.142.111.237-.047.078-.174.031-.253.031h-1.959a.9.9 0 0 1-.726-.316 13.3 13.3 0 0 0-6.825-4.091c-7.614-1.912-15.34 3.112-16.683 10.836-1.216 7.061 3.097 13.854 10.063 15.544 5.213 1.28 9.731-.174 13.428-4.075.205-.206.395-.3.68-.3H68z"/><path fill="#1dc1f0" d="M25.205 41.45c.679-1.847 1.342-3.696 2.006-5.528.19-.506.474-.9 1.042-1.011.648-.127 1.185.253 1.248.916v8.721c0 .757-.505 1.152-1.232.994-.442-.094-.71-.442-.71-.947v-3.902c0-.11 0-.206-.048-.332-.047.158-.11.332-.158.49-.38 1.248-.758 2.511-1.137 3.76-.048.157-.095.3-.19.426-.427.68-1.264.68-1.659-.032-.22-.379-.316-.805-.474-1.216-.426-1.153-.837-2.306-1.263-3.476-.08.08-.048.174-.048.237v4.013c0 .774-.521 1.137-1.31.948-.412-.095-.633-.427-.633-.916V35.89c.032-.41.127-.774.553-.932.458-.173.885-.126 1.264.206.237.205.379.458.505.758.695 1.77 1.406 3.523 2.101 5.292.032.079.048.158.143.221z"/><path fill="#1a4c68" d="M63.787 39.49c.127 0 .174-.11.237-.157.569-.522 1.138-1.059 1.706-1.58.332-.3.711-.49 1.154-.3.663.284.79 1.01.268 1.58-.205.22-.442.426-.663.631-.269.253-.522.506-.79.743-.142.126-.158.22-.048.379.664.98 1.312 1.959 1.96 2.938q.212.309.331.664c.11.426.032.742-.268.963-.364.269-.775.285-1.138.048-.221-.143-.363-.332-.505-.553-.57-.885-1.122-1.77-1.707-2.654-.063-.095-.11-.3-.205-.237-.158.079-.332.205-.347.426v2.228a.94.94 0 0 1-.885.948c-.537.031-.948-.316-1.027-.838V35.92c0-.395.142-.71.474-.916.648-.395 1.453.063 1.453.837v3.65m-9.363 1.792v-3.207c0-.71.553-1.184 1.217-1.026.253.063.474.189.584.426.095.205.19.174.364.095a3.3 3.3 0 0 1 2.022-.316c1.121.174 1.88.963 2.1 2.164.032.205.064.395.064.6v4.613c0 .537-.41.948-.948.964a.975.975 0 0 1-.995-.916v-4.234c0-.127 0-.253-.016-.38-.095-.694-.569-.979-1.232-.742-.427.143-.759.443-1.09.743-.11.094-.08.22-.08.331v4.171c0 .648-.489 1.074-1.12 1.011-.506-.063-.854-.474-.854-1.058v-3.239z"/><path fill="#1dc1f0" d="M33.694 42.217c.111-.3.19-.537.269-.774.316-.932.648-1.864.964-2.796.063-.19.142-.38.268-.553.285-.38.68-.521 1.122-.363.41.142.6.442.6.916 0 .19-.047.379-.11.569-.79 2.322-1.596 4.628-2.497 6.919-.063.174-.157.347-.236.521-.506 1.027-1.106 1.453-2.591 1.406-.3 0-.6-.063-.885-.205-.41-.206-.632-.57-.569-.98s.364-.68.854-.727c.252-.031.52-.015.774-.047.584-.063.837-.379 1.01-.98.032-.126-.047-.236-.078-.347-.68-1.785-1.359-3.57-2.038-5.34-.127-.331-.221-.663-.142-1.026s.3-.585.647-.68c.348-.094.664-.063.916.206.19.174.285.395.38.632.41 1.106.837 2.227 1.248 3.333.031.079.063.158.126.3z"/><path fill="#1a4c68" d="M46.142 41.367c-.11-.458-.3-.868-.648-1.2-.11-.095-.284-.174-.316-.3-.031-.142.158-.253.237-.38.569-.963.458-2.638-.253-3.506a2.5 2.5 0 0 0-.821-.648A3.5 3.5 0 0 0 42.903 35a76 76 0 0 0-3.285 0c-.9 0-1.39.506-1.39 1.422v8.925c0 .142-.032.269.189.269 1.627 0 3.254 0 4.865-.016 1.438-.032 2.418-.742 2.797-1.943.237-.742.252-1.5.079-2.275zm-5.94-4.186c0-.158.047-.205.205-.205h2.402c.632 0 1.01.442 1.01 1.074 0 .648-.363.995-1.026 1.011h-2.354c-.174 0-.253-.032-.237-.221zm3.886 5.94c-.237.41-.632.537-1.074.553h-2.607c-.158 0-.205-.047-.205-.206v-2.211c0-.174.063-.206.205-.19h2.544c1.09.016 1.674 1.106 1.121 2.054zm9.321-.818h-.016c0-.79.031-1.564 0-2.354-.063-1.296-.774-2.29-1.912-2.607-1.485-.41-2.827-.063-3.996.948a1.4 1.4 0 0 0-.348.458c-.174.41-.079.9.237 1.17.284.252.727.268 1.106.047.142-.08.268-.19.41-.285a3 3 0 0 1 1.438-.616c.49-.079.853.126 1.027.569.11.284.095.3-.205.316-.932.016-1.833.142-2.67.616-1.059.6-1.58 1.659-1.438 2.86.142 1.073.79 1.816 1.833 2.069.869.205 1.69.031 2.448-.38.127-.063.19-.11.269.064.079.205.269.316.474.379.758.22 1.343-.206 1.343-.995zm-1.896-.158c-.063.284-.19.52-.38.726-.394.38-.852.616-1.405.6-.158 0-.316 0-.458-.063-.285-.095-.458-.268-.49-.568s.11-.49.347-.632c.411-.237.87-.3 1.328-.348.284-.031.568 0 .853-.016.236 0 .268.095.22.285z"/></svg>
